X: 1
T: Brochan Lom (Thin Porridge)
T: Orange and Blue
Z: John Chambers <jc@trillian.mit.edu>
N: called a schottische in Skinner SV p.20 (with variations),
N: Hunter  354
N: jig or strathspey in Skye p.121
N: second Kennedy tune-book
N: p.19, BSFC I-23, keep under O&B name alphabetically
M: 4/4
L: 1/8
K: D
[| a>g | "D"f-<d ~d2 A-<d ~d2 | f>d a>f d2 ef \
       | "Em"g-<e ~e2 B-<e ~e2 | "A7"c>A e>c A2 a>g |
       | "D"f-<d ~d2 A-<d ~d2 | f>d a>f d2 (3fga \
       | "G"b>g "D"a>f "A7"g>e "D"f>d | "A7"e>c (3ABc "D"d2 |]
[| a>g | "D"f-<a a2 "F#m"f-<a a2 | "Bm"f>d a>f "D"d2 e>f \
       | "Em"g-e b>g "A7"e2 f>g |
       | "D"f-<a a2 "F#m"f-<a a2 | "Bm"f>d a>f "D"d2 (3fga \
       | "G"b>g "D"a>f "A7"g>e "D"f>d | "A7"e>c (3ABc "D"d2 |]
x8 x8 x8 x8 x8 x8 x8 x8 |
x8 x8 x8 x8 x8 x8 x8 x8 |
x8 x8 x8 x8 x8 x8 x8 x8 |
x8 x8 x8 x8 x8 x8 x8 x8 |
x8 x8 x8 x8 x8 x8 x8 x8 |
x8 x8 x8 x8 x8 x8 x8 x8 |
